src/symbolic/actions/image-straighten-symbolic.svg

<svg xmlns="http://www.w3.org/2000/svg" width="16" height="16" version="1.1">
 <path style="fill:#444444" d="M 1,8 V 9 H 2 V 8 Z M 3,8 V 9 H 4 V 8 Z M 5,8 V 9 H 6 V 8 Z M 7,8 V 9 H 8 V 8 Z M 9,8 V 9 H 10 V 8 Z M 11,8 V 9 H 12 V 8 Z M 13,8 V 9 H 14 V 8 Z M 15,8 V 9 H 16 V 8 Z"/>
 <path style="fill:#444444" d="M 12.963,0.99422 C 12.868,0.99595 12.807,1.0079 12.807,1.0079 L 1.0078,3.1935 C 0.02451,3.3757 0.20508,4.3595 0.20508,4.3595 L 0.69531,7.0001 H 3.8065 L 4.914,5.0724 7.3769,7.0001 H 9.6776 L 10.572,5.7442 12.398,7.0001 H 14.936 L 13.973,1.8087 C 13.835,1.0712 13.248,0.98905 12.963,0.99422 Z M 1.2519,10 2.0292,14.191 C 2.2114,15.174 3.1933,14.992 3.1933,14.992 L 14.992,12.807 C 14.992,12.807 15.977,12.624 15.795,11.641 L 15.49,10 H 13.455 L 13.645,11.021 3.8124,12.844 3.2851,10 Z"/>
</svg>

<svg xmlns="http://www.w3.org/2000/svg" width="16" height="16"><path d="M1 8v1h1V8zm2 0v1h1V8zm2 0v1h1V8zm2 0v1h1V8zm2 0v1h1V8zm2 0v1h1V8zm2 0v1h1V8zm2 0v1h1V8zM12.963.994c-.095.002-.156.014-.156.014l-11.8 2.186C.026 3.376.206 4.359.206 4.359L.695 7h3.112l1.107-1.928L7.377 7h2.3l.895-1.256L12.398 7h2.538l-.963-5.191c-.138-.738-.725-.82-1.01-.815zM1.252 10l.777 4.191c.182.983 1.164.801 1.164.801l11.799-2.185s.985-.183.803-1.166L15.49 10h-2.035l.19 1.021-9.833 1.823L3.285 10z" fill="#5d656b"/></svg>
